!!!OTL: WAR EINST EIN JUNG ZIMMER GESELL
!!!ARE: Europa, Mitteleuropa, Deutschland
!!!SCT: F0098
!!!YEM: Copyright 1995, estate of Helmut Schaffrath.
**kern
*ICvox
*Ivox
*M6/8
*k[b-]
*F:
{8c
=1
4f
8f
8a
8g
8f
=2
8g
8g
8g
8b-
8a}
{8g
=3
8d
8d
8d
8f
8e
8d
=4
4.a
4r}
{8cc
=5
4cc
8b-
8dd
8dd
8b-
=6
8b-
8b-
8a
4cc}
{8a
=7
8a
8a
8g
8a
8a
8b-
=8
4.cc
4dd}
{8cc
=9
4cc
8b-
8dd
8dd
8b-
=10
8b-
8b-
8a
4cc}
{8a
=11
8a
8a
8g
8b-
8b-
8e
=12
4.f
4r}
==
!!!AGN: erzaehlendes Volks - Lied, Ballade
!!!ONB: ESAC (Essen Associative Code) Database: FINK
!!!AMT: compound duple
!!!AIN: vox
!!!EED: Helmut Schaffrath
!!!EEV: 1.0
*-
